icons/triangle-arrow-down.svg

<svg xmlns="http://www.w3.org/2000/svg" width="24" height="24" viewBox="0 0 24 24">
  <path d="M9.37135227,3.70432092 C10.1698214,2.25255887 11.9939942,1.72296031 13.4457562,2.52142944 C13.9442354,2.79559297 14.3544842,3.20584177 14.6286477,3.70432092 L14.6286477,3.70432092 L22.2461053,17.5542438 C23.0445744,19.0060058 22.5149759,20.8301786 21.0632138,21.6286477 C20.6202789,21.8722619 20.1229665,22 19.6174576,22 L19.6174576,22 L4.38254244,22 C2.72568819,22 1.38254244,20.6568542 1.38254244,19 C1.38254244,18.4944911 1.5102805,17.9971787 1.75389472,17.5542438 L1.75389472,17.5542438 Z M12,10 C11.4871642,10 11.0644928,10.3860402 11.0067277,10.8833789 L11,11 L11,14.585 L9.70710678,13.2928932 C9.31658249,12.9023689 8.68341751,12.9023689 8.29289322,13.2928932 C7.93240926,13.6533772 7.90467972,14.2206082 8.20970461,14.6128994 L8.29289322,14.7071068 L11.2928932,17.7071068 L11.347434,17.757792 L11.347434,17.757792 L11.3745424,17.7795191 C11.3803405,17.7849249 11.3817936,17.7860715 11.3832499,17.787214 L11.3795424,17.7835191 L11.4046934,17.8036654 L11.4046934,17.8036654 C11.4288693,17.8215099 11.453725,17.8382813 11.4793398,17.8539326 C11.4913869,17.8613931 11.5036056,17.8685012 11.5159379,17.8753288 C11.5357061,17.8862061 11.5561086,17.8966234 11.5769009,17.9063462 C11.5939015,17.914321 11.6112044,17.9218036 11.628664,17.9287745 C11.6484208,17.9366843 11.6682023,17.9438775 11.6882636,17.9504533 L11.734007,17.9641549 L11.734007,17.9641549 C11.7555635,17.9701664 11.7772539,17.9753602 11.7992059,17.9798348 C11.8166247,17.9832978 11.834051,17.9863719 11.8515331,17.9889822 C11.8705042,17.9918878 11.890153,17.9942339 11.909968,17.996002 C11.9208131,17.99693 11.9308872,17.9976744 11.9409686,17.9982669 L11.980824,17.9998198 L12,18 L12,18 L12.019,17.999 L12.0255424,17.9985191 L12.0805424,17.9955191 L12.1489612,17.9889807 L12.1489612,17.9889807 C12.165949,17.9863719 12.1833753,17.9832978 12.2007258,17.9797599 C12.2227461,17.9753602 12.2444365,17.9701664 12.2658396,17.964279 L12.3121425,17.9502619 L12.3121425,17.9502619 C12.3317977,17.9438775 12.3515792,17.9366843 12.3710585,17.928896 C12.3887956,17.9218036 12.4060985,17.914321 12.4232215,17.9063266 C12.4438914,17.8966234 12.4642939,17.8862061 12.484277,17.8751242 C12.4963944,17.8685012 12.5086131,17.8613931 12.5207088,17.8540045 C12.546275,17.8382813 12.5711307,17.8215099 12.5951593,17.8036865 L12.6128994,17.7902954 L12.6128994,17.7902954 C12.6196628,17.7849289 12.6225624,17.7826279 12.625449,17.7803112 L12.7071068,17.7071068 L15.7071068,14.7071068 C16.0976311,14.3165825 16.0976311,13.6834175 15.7071068,13.2928932 C15.3466228,12.9324093 14.7793918,12.9046797 14.3871006,13.2097046 L14.2928932,13.2928932 L13,14.585 L13,11 C13,10.4477153 12.5522847,10 12,10 Z"/>
</svg>

<svg xmlns="http://www.w3.org/2000/svg" viewBox="0 0 24 24">
  <path d="M9.37 3.7a3 3 0 0 1 5.26 0l7.62 13.85A3 3 0 0 1 19.62 22H4.38a3 3 0 0 1-2.63-4.45zM12 10a1 1 0 0 0-1 .88v3.71l-1.3-1.3a1 1 0 0 0-1.49 1.32l.08.1 3 3 .06.05.02.02h.01l.02.02a1.03 1.03 0 0 0 .29.15l.04.01a.94.94 0 0 0 .21.04h.14l.07-.01a1.08 1.08 0 0 0 .12-.03l.04-.01a.95.95 0 0 0 .29-.15l.01-.01.02-.01.08-.07 3-3a1 1 0 0 0-1.32-1.5l-.1.08L13 14.6V11a1 1 0 0 0-1-1z"/>
</svg>
